symbols/web/format_clear/materialsymbolsrounded/format_clear_48px.svg

<svg xmlns="http://www.w3.org/2000/svg" height="48" width="48"><path d="M25.35 21.8 21.5 18l1.2-2.8h-3.95l-5.2-5.2H37.5q1.05 0 1.775.725Q40 11.45 40 12.5q0 1.05-.725 1.775Q38.55 15 37.5 15h-9.25Zm13.9 22.35L22.85 27.7l-3.75 8.8q-.3.7-.925 1.1-.625.4-1.375.4-1.35 0-2.1-1.125t-.2-2.375L19 23.9 3.85 8.75Q3.4 8.3 3.4 7.7q0-.6.45-1.05.45-.45 1.05-.45.6 0 1.05.45l35.4 35.4q.45.45.45 1.05 0 .6-.45 1.05-.45.45-1.05.45-.6 0-1.05-.45Z"/></svg>

<svg xmlns="http://www.w3.org/2000/svg" height="48" width="48"><path d="M25.35 21.8 21.5 18 22.7 15.2H18.75L13.55 10H37.5Q38.55 10 39.275 10.725Q40 11.45 40 12.5Q40 13.55 39.275 14.275Q38.55 15 37.5 15H28.25ZM39.25 44.15 22.85 27.7 19.1 36.5Q18.8 37.2 18.175 37.6Q17.55 38 16.8 38Q15.45 38 14.7 36.875Q13.95 35.75 14.5 34.5L19 23.9L3.85 8.75Q3.4 8.3 3.4 7.7Q3.4 7.1 3.85 6.65Q4.3 6.2 4.9 6.2Q5.5 6.2 5.95 6.65L41.35 42.05Q41.8 42.5 41.8 43.1Q41.8 43.7 41.35 44.15Q40.9 44.6 40.3 44.6Q39.7 44.6 39.25 44.15Z"/></svg>
